static/assets/img/icon-linkedin.svg

<?xml version="1.0" encoding="utf-8"?>
<svg width="18px" height="18px" viewBox="0 0 18 18" version="1.1" xmlns:xlink="http://www.w3.org/1999/xlink" xmlns="http://www.w3.org/2000/svg">
  <desc>Created with Lunacy</desc>
  <defs>
    <path d="M1.999 0L16.001 0Q16.0992 0 16.1969 0.00962573Q16.2947 0.0192515 16.391 0.0384102Q16.4873 0.057569 16.5813 0.0860763Q16.6753 0.114584 16.766 0.152165Q16.8567 0.189746 16.9433 0.236039Q17.0299 0.282333 17.1116 0.336892Q17.1932 0.391452 17.2691 0.453752Q17.3451 0.516052 17.4145 0.585494Q17.4839 0.654935 17.5462 0.730848Q17.6085 0.806761 17.6631 0.888415Q17.7177 0.970069 17.764 1.05668Q17.8103 1.14329 17.8478 1.23402Q17.8854 1.32474 17.9139 1.41872Q17.9424 1.5127 17.9616 1.60901Q17.9807 1.70533 17.9904 1.80306Q18 1.9008 18 1.999L18 16.001Q18 16.0992 17.9904 16.1969Q17.9807 16.2947 17.9616 16.391Q17.9424 16.4873 17.9139 16.5813Q17.8854 16.6753 17.8478 16.766Q17.8103 16.8567 17.764 16.9433Q17.7177 17.0299 17.6631 17.1116Q17.6085 17.1932 17.5462 17.2691Q17.4839 17.3451 17.4145 17.4145Q17.3451 17.4839 17.2691 17.5462Q17.1932 17.6085 17.1116 17.6631Q17.0299 17.7177 16.9433 17.764Q16.8567 17.8103 16.766 17.8478Q16.6753 17.8854 16.5813 17.9139Q16.4873 17.9424 16.391 17.9616Q16.2947 17.9807 16.1969 17.9904Q16.0992 18 16.001 18L1.999 18Q1.9008 18 1.80306 17.9904Q1.70533 17.9807 1.60901 17.9616Q1.5127 17.9424 1.41872 17.9139Q1.32474 17.8854 1.23402 17.8478Q1.14329 17.8103 1.05668 17.764Q0.970069 17.7177 0.888415 17.6631Q0.806761 17.6085 0.730848 17.5462Q0.654935 17.4839 0.585494 17.4145Q0.516052 17.3451 0.453752 17.2691Q0.391452 17.1932 0.336892 17.1116Q0.282333 17.0299 0.236039 16.9433Q0.189746 16.8567 0.152165 16.766Q0.114584 16.6753 0.0860763 16.5813Q0.057569 16.4873 0.0384102 16.391Q0.0192515 16.2947 0.00962573 16.1969Q0 16.0992 0 16.001L0 1.999Q0 1.9008 0.00962573 1.80306Q0.0192515 1.70533 0.0384102 1.60901Q0.057569 1.5127 0.0860763 1.41872Q0.114584 1.32474 0.152165 1.23402Q0.189746 1.14329 0.236039 1.05668Q0.282333 0.970069 0.336892 0.888415Q0.391452 0.806761 0.453752 0.730848Q0.516052 0.654935 0.585494 0.585494Q0.654935 0.516052 0.730848 0.453752Q0.806761 0.391452 0.888415 0.336892Q0.970069 0.282333 1.05668 0.236039Q1.14329 0.189746 1.23402 0.152165Q1.32474 0.114584 1.41872 0.0860763Q1.5127 0.057569 1.60901 0.0384102Q1.70533 0.0192515 1.80306 0.00962573Q1.9008 0 1.999 0Z" id="path_1" />
    <clipPath id="mask_1">
      <use xlink:href="#path_1" />
    </clipPath>
  </defs>
  <g id="icon-linkedin">
    <path d="M1.999 0L16.001 0Q16.0992 0 16.1969 0.00962573Q16.2947 0.0192515 16.391 0.0384102Q16.4873 0.057569 16.5813 0.0860763Q16.6753 0.114584 16.766 0.152165Q16.8567 0.189746 16.9433 0.236039Q17.0299 0.282333 17.1116 0.336892Q17.1932 0.391452 17.2691 0.453752Q17.3451 0.516052 17.4145 0.585494Q17.4839 0.654935 17.5462 0.730848Q17.6085 0.806761 17.6631 0.888415Q17.7177 0.970069 17.764 1.05668Q17.8103 1.14329 17.8478 1.23402Q17.8854 1.32474 17.9139 1.41872Q17.9424 1.5127 17.9616 1.60901Q17.9807 1.70533 17.9904 1.80306Q18 1.9008 18 1.999L18 16.001Q18 16.0992 17.9904 16.1969Q17.9807 16.2947 17.9616 16.391Q17.9424 16.4873 17.9139 16.5813Q17.8854 16.6753 17.8478 16.766Q17.8103 16.8567 17.764 16.9433Q17.7177 17.0299 17.6631 17.1116Q17.6085 17.1932 17.5462 17.2691Q17.4839 17.3451 17.4145 17.4145Q17.3451 17.4839 17.2691 17.5462Q17.1932 17.6085 17.1116 17.6631Q17.0299 17.7177 16.9433 17.764Q16.8567 17.8103 16.766 17.8478Q16.6753 17.8854 16.5813 17.9139Q16.4873 17.9424 16.391 17.9616Q16.2947 17.9807 16.1969 17.9904Q16.0992 18 16.001 18L1.999 18Q1.9008 18 1.80306 17.9904Q1.70533 17.9807 1.60901 17.9616Q1.5127 17.9424 1.41872 17.9139Q1.32474 17.8854 1.23402 17.8478Q1.14329 17.8103 1.05668 17.764Q0.970069 17.7177 0.888415 17.6631Q0.806761 17.6085 0.730848 17.5462Q0.654935 17.4839 0.585494 17.4145Q0.516052 17.3451 0.453752 17.2691Q0.391452 17.1932 0.336892 17.1116Q0.282333 17.0299 0.236039 16.9433Q0.189746 16.8567 0.152165 16.766Q0.114584 16.6753 0.0860763 16.5813Q0.057569 16.4873 0.0384102 16.391Q0.0192515 16.2947 0.00962573 16.1969Q0 16.0992 0 16.001L0 1.999Q0 1.9008 0.00962573 1.80306Q0.0192515 1.70533 0.0384102 1.60901Q0.057569 1.5127 0.0860763 1.41872Q0.114584 1.32474 0.152165 1.23402Q0.189746 1.14329 0.236039 1.05668Q0.282333 0.970069 0.336892 0.888415Q0.391452 0.806761 0.453752 0.730848Q0.516052 0.654935 0.585494 0.585494Q0.654935 0.516052 0.730848 0.453752Q0.806761 0.391452 0.888415 0.336892Q0.970069 0.282333 1.05668 0.236039Q1.14329 0.189746 1.23402 0.152165Q1.32474 0.114584 1.41872 0.0860763Q1.5127 0.057569 1.60901 0.0384102Q1.70533 0.0192515 1.80306 0.00962573Q1.9008 0 1.999 0Z" id="Background" fill="#000000" fill-rule="evenodd" stroke="none" />
    <g clip-path="url(#mask_1)">
      <path d="M16 0L2 0C0.895 0 0 0.895 0 2L0 16C0 17.105 0.895 18 2 18L16 18C17.105 18 18 17.105 18 16L18 2C18 0.895 17.105 0 16 0L16 0ZM4.738 14L4.738 14C4.041 14 3.476 13.435 3.476 12.738L3.476 8.261C3.477 7.565 4.042 7 4.738 7L4.738 7C5.435 7 6 7.565 6 8.262L6 12.739C6 13.435 5.435 14 4.738 14L4.738 14ZM4.694 5.717C3.923 5.717 3.408 5.203 3.408 4.517C3.408 3.831 3.922 3.317 4.779 3.317C5.55 3.317 6.065 3.831 6.065 4.517C6.065 5.203 5.551 5.717 4.694 5.717L4.694 5.717ZM13.779 14L13.779 14C13.105 14 12.558 13.453 12.558 12.779L12.558 10.174C12.558 9.116 11.907 9 11.663 9C11.419 9 10.605 9.035 10.605 10.174L10.605 12.779C10.605 13.453 10.058 14 9.384 14L9.303 14C8.629 14 8.082 13.453 8.082 12.779L8.082 8.262C8.082 7.565 8.647 7 9.344 7L9.344 7C10.041 7 10.606 7.565 10.606 8.262C10.606 8.262 10.888 7 12.804 7C14.023 7 15 7.977 15 10.174L15 12.779C15 13.453 14.453 14 13.779 14L13.779 14Z" id="Shape" fill="#FFFFFF" fill-rule="evenodd" stroke="none" />
    </g>
  </g>
</svg>

<svg width="18" height="18" xmlns:xlink="http://www.w3.org/1999/xlink" xmlns="http://www.w3.org/2000/svg"><defs><clipPath id="mask_1"><use xlink:href="#path_1"/></clipPath><path d="M1.999 0h14.002q.098 0 .196.01t.194.028q.096.02.19.048.094.029.185.066.09.038.177.084.087.046.169.1.081.055.157.118.076.062.146.131.069.07.131.146.063.076.117.157.055.082.101.169.046.086.084.177.037.09.066.185.028.094.048.19.019.096.028.194.01.098.01.196v14.002q0 .098-.01.196t-.028.194q-.02.096-.048.19-.029.094-.066.185-.038.09-.084.177-.046.087-.1.169-.056.081-.118.157-.062.076-.131.146-.07.069-.146.131-.076.063-.157.117-.082.055-.169.101-.086.046-.177.084-.09.037-.185.066-.094.028-.19.048-.096.019-.194.028-.098.01-.196.01H1.999q-.098 0-.196-.01t-.194-.028q-.096-.02-.19-.048-.094-.029-.185-.066-.09-.038-.177-.084-.087-.046-.169-.1-.081-.056-.157-.118-.076-.062-.146-.131-.069-.07-.131-.146-.063-.076-.117-.157-.055-.082-.101-.169-.046-.086-.084-.177-.037-.09-.066-.185-.028-.094-.048-.19-.019-.096-.028-.194Q0 16.099 0 16V1.999q0-.098.01-.196t.028-.194q.02-.096.048-.19.029-.094.066-.185.038-.09.084-.177.046-.087.1-.169Q.392.807.455.731.516.655.585.585.655.516.731.454.807.39.888.337.97.282 1.057.236q.086-.046.177-.084.09-.037.185-.066.094-.028.19-.048.096-.019.194-.028Q1.901 0 2 0z" id="path_1"/></defs><g id="icon-linkedin"><path d="M1.999 0h14.002q.098 0 .196.01t.194.028q.096.02.19.048.094.029.185.066.09.038.177.084.087.046.169.1.081.055.157.118.076.062.146.131.069.07.131.146.063.076.117.157.055.082.101.169.046.086.084.177.037.09.066.185.028.094.048.19.019.096.028.194.01.098.01.196v14.002q0 .098-.01.196t-.028.194q-.02.096-.048.19-.029.094-.066.185-.038.09-.084.177-.046.087-.1.169-.056.081-.118.157-.062.076-.131.146-.07.069-.146.131-.076.063-.157.117-.082.055-.169.101-.086.046-.177.084-.09.037-.185.066-.094.028-.19.048-.096.019-.194.028-.098.01-.196.01H1.999q-.098 0-.196-.01t-.194-.028q-.096-.02-.19-.048-.094-.029-.185-.066-.09-.038-.177-.084-.087-.046-.169-.1-.081-.056-.157-.118-.076-.062-.146-.131-.069-.07-.131-.146-.063-.076-.117-.157-.055-.082-.101-.169-.046-.086-.084-.177-.037-.09-.066-.185-.028-.094-.048-.19-.019-.096-.028-.194Q0 16.099 0 16V1.999q0-.098.01-.196t.028-.194q.02-.096.048-.19.029-.094.066-.185.038-.09.084-.177.046-.087.1-.169Q.392.807.455.731.516.655.585.585.655.516.731.454.807.39.888.337.97.282 1.057.236q.086-.046.177-.084.09-.037.185-.066.094-.028.19-.048.096-.019.194-.028Q1.901 0 2 0z" id="Background" fill="#000" fill-rule="evenodd" stroke="none"/><g clip-path="url(#mask_1)"><path d="M16 0H2a2 2 0 00-2 2v14a2 2 0 002 2h14a2 2 0 002-2V2a2 2 0 00-2-2zM4.738 14a1.262 1.262 0 01-1.262-1.262V8.261A1.262 1.262 0 016 8.262v4.477C6 13.435 5.435 14 4.738 14zm-.044-8.283c-.771 0-1.286-.514-1.286-1.2 0-.686.514-1.2 1.371-1.2.771 0 1.286.514 1.286 1.2 0 .686-.514 1.2-1.371 1.2zM13.779 14a1.221 1.221 0 01-1.221-1.221v-2.605c0-1.058-.651-1.174-.895-1.174s-1.058.035-1.058 1.174v2.605c0 .674-.547 1.221-1.221 1.221h-.081a1.221 1.221 0 01-1.221-1.221V8.262a1.262 1.262 0 112.524 0S10.888 7 12.804 7C14.023 7 15 7.977 15 10.174v2.605c0 .674-.547 1.221-1.221 1.221z" id="Shape" fill="#FFF" fill-rule="evenodd" stroke="none"/></g></g></svg>
